contributed-vectors/rocks_n_diamonds.svg

<?xml version="1.0" encoding="UTF-8" standalone="no"?>
<svg
   xmlns:dc="http://purl.org/dc/elements/1.1/"
   xmlns:cc="http://creativecommons.org/ns#"
   xmlns:rdf="http://www.w3.org/1999/02/22-rdf-syntax-ns#"
   xmlns:svg="http://www.w3.org/2000/svg"
   xmlns="http://www.w3.org/2000/svg"
   xmlns:sodipodi="http://sodipodi.sourceforge.net/DTD/sodipodi-0.dtd"
   xmlns:inkscape="http://www.inkscape.org/namespaces/inkscape"
   viewBox="0 0 192 192"
   version="1.1"
   id="svg16"
   sodipodi:docname="rocks-n-diamonds.svg"
   inkscape:version="0.92.4 (5da689c313, 2019-01-14)">
  <metadata
     id="metadata20">
    <rdf:RDF>
      <cc:Work
         rdf:about="">
        <dc:format>image/svg+xml</dc:format>
        <dc:type
           rdf:resource="http://purl.org/dc/dcmitype/StillImage" />
        <dc:title />
      </cc:Work>
    </rdf:RDF>
  </metadata>
  <sodipodi:namedview
     pagecolor="#ffffff"
     bordercolor="#666666"
     borderopacity="1"
     objecttolerance="10"
     gridtolerance="10"
     guidetolerance="10"
     inkscape:pageopacity="0"
     inkscape:pageshadow="2"
     inkscape:window-width="1920"
     inkscape:window-height="1017"
     id="namedview18"
     showgrid="true"
     inkscape:zoom="3.4766083"
     inkscape:cx="29.049424"
     inkscape:cy="90.217389"
     inkscape:window-x="-8"
     inkscape:window-y="-8"
     inkscape:window-maximized="1"
     inkscape:current-layer="svg16">
    <inkscape:grid
       type="xygrid"
       id="grid827"
       spacingx="4"
       spacingy="4" />
  </sodipodi:namedview>
  <defs
     id="defs4">
    <style
       id="style2">.a{fill:none;stroke:#b1b5bd;stroke-linecap:round;stroke-linejoin:round;isolation:isolate;opacity:0.63;}</style>
  </defs>
  <path
     style="fill:#98dc9a;stroke:#98dc9a;stroke-width:16;stroke-linecap:round;stroke-linejoin:round;stroke-miterlimit:4;stroke-dasharray:none;stroke-opacity:1"
     d="m 88,16 80,36 8,72 -64,52 L 36,152 16,80 Z"
     id="path829"
     inkscape:connector-curvature="0"
     sodipodi:nodetypes="ccccccc" />
  <path
     style="fill:#e0f4e0"
     d="M 87.998047 8.0058594 C 86.041934 8.0069081 84.150593 8.7189119 82.685547 10.021484 L 10.685547 74.021484 C 8.9742459 75.542445 8.023916 77.694148 8 79.916016 C 7.9996857 79.945212 8.0058533 79.974687 8.0058594 80.003906 L 52 112 L 87.998047 8.0058594 z "
     id="path831" />
  <path
     style="fill:#71a372"
     d="M 88.181641 8.0019531 C 88.122732 8.0006279 88.06466 8.0058854 88.005859 8.0058594 L 144 72 L 52 112 L 8.0058594 80.003906 C 8.0060065 80.71589 8.0950329 81.434222 8.2910156 82.140625 L 28.291016 154.14062 C 29.015629 156.74903 31.01014 158.8141 33.591797 159.62891 L 109.5918 183.62891 C 112.15691 184.43855 114.95719 183.90506 117.04492 182.20898 L 181.04492 130.20898 C 182.89259 128.70752 183.96267 126.47539 184 124.12891 C 184.00533 123.79369 183.98869 123.45523 183.95117 123.11719 L 175.95117 51.117188 C 175.71817 49.020555 174.67025 47.132924 173.08398 45.826172 C 172.54239 45.380014 171.93999 45.0007 171.2832 44.705078 L 91.283203 8.7050781 C 90.306816 8.2655194 89.252129 8.0264217 88.181641 8.0019531 z "
     id="path833" />
  <path
     style="fill:#000000;stroke:none;stroke-width:1px;stroke-linecap:butt;stroke-linejoin:miter;stroke-opacity:1;opacity:0.25"
     d="M 173.48633 46.199219 L 144 72 L 52 112 L 111.98633 183.98438 C 111.98651 183.98438 112.98655 183.92196 113.01953 183.91992 C 114.47365 183.73275 115.87242 183.16153 117.04492 182.20898 L 181.04492 130.20898 C 183.15654 128.49302 184.25134 125.82151 183.95117 123.11719 L 175.95117 51.117188 C 175.73896 49.207647 174.84121 47.481231 173.48633 46.199219 z "
     id="path881" />
  <path
     style="fill:#000000;opacity:0.25"
     d="M 144 72 L 112.00391 183.98438 C 113.81592 183.98325 115.60105 183.38199 117.04492 182.20898 L 181.04492 130.20898 C 182.07767 129.36975 182.86317 128.29974 183.36523 127.11133 L 144 72 z "
     id="path879" />
  <path
     style="fill:#98dc9a;stroke:none;stroke-width:1px;stroke-linecap:butt;stroke-linejoin:miter;stroke-opacity:1;opacity:0.5"
     d="M 8.0058594 80.003906 C 8.0060065 80.71589 8.0950324 81.434222 8.2910156 82.140625 L 28.291016 154.14062 C 28.561851 155.11556 29.009613 156.01457 29.599609 156.80078 L 52 112 L 8.0058594 80.003906 z "
     id="path955" />
</svg>

<svg xmlns="http://www.w3.org/2000/svg" id="svg16" version="1.1" viewBox="0 0 192 192"><defs id="defs4"><style id="style2">.a{fill:none;stroke:#b1b5bd;stroke-linecap:round;stroke-linejoin:round;isolation:isolate;opacity:.63}</style></defs><path id="path829" d="m88 16 80 36 8 72-64 52-76-24-20-72Z" style="fill:#98dc9a;stroke:#98dc9a;stroke-width:16;stroke-linecap:round;stroke-linejoin:round;stroke-miterlimit:4;stroke-dasharray:none;stroke-opacity:1"/><path id="path831" d="M87.998 8.006a7.997 7.997 0 0 0-5.312 2.015l-72 64A8 8 0 0 0 8 79.916c0 .03.006.059.006.088L52 112 87.998 8.006z" style="fill:#e0f4e0"/><path id="path833" d="M88.182 8.002c-.06-.001-.117.004-.176.004L144 72l-92 40L8.006 80.004c0 .712.089 1.43.285 2.137l20 72a8 8 0 0 0 5.3 5.488l76 24a8 8 0 0 0 7.454-1.42l64-52a8 8 0 0 0 2.906-7.092l-8-72a8.001 8.001 0 0 0-4.668-6.412l-80-36a8 8 0 0 0-3.101-.703z" style="fill:#71a372"/><path id="path881" d="M173.486 46.2 144 72l-92 40 59.986 71.984 1.034-.064a7.981 7.981 0 0 0 4.025-1.711l64-52a8 8 0 0 0 2.906-7.092l-8-72a7.987 7.987 0 0 0-2.465-4.918z" style="fill:#000;stroke:none;stroke-width:1px;stroke-linecap:butt;stroke-linejoin:miter;stroke-opacity:1;opacity:.25"/><path id="path879" d="m144 72-31.996 111.984a7.986 7.986 0 0 0 5.04-1.775l64-52a7.993 7.993 0 0 0 2.321-3.098L144 72z" style="fill:#000;opacity:.25"/><path id="path955" d="M8.006 80.004c0 .712.089 1.43.285 2.137l20 72c.27.975.719 1.874 1.309 2.66L52 112 8.006 80.004z" style="fill:#98dc9a;stroke:none;stroke-width:1px;stroke-linecap:butt;stroke-linejoin:miter;stroke-opacity:1;opacity:.5"/></svg>
